X: 63
T: Soldier's Joy
B: begged borrowed and stolen
M:4/4
L:1/8
R: hornpipe
Q: 1/4=100
K:Dmajor
V:1 
FG|:"D"AFDF AFDF|A2d2 "G"d2cB|"D"AFDF AFDF|"E7"G2E2 "A7"E2FG|
 "D"AFDF AFDF|A2d2 "G"d2eg|"D"fafd "A7"egec|"D"e2d2 d2:|
 |:de|f2fd fagf|"A7"e2ec egfe|"D"f2fd fagf|"E7"edcB "A7"A2de|
 "D"fdAd fagf|"Em"ecAc "A7"egfe|"D"fafd "A7"egec|"D"e2d2 d2:|
% abcbook-tune_id 62828a3a9cd15b562b4dbed4


% abcbook-boost 0
% abcbook-tablature 
% abcbook-transpose 
% abcbook-lastupdated 1652725431094
% abcbook-soundfonts 
% abcbook-repeats 3
% abc-sessionorg_id 1356
% abc-sessionorg_setting 0
% abc-sessionorg_setting_id 39289
% abc-boost 0

